X:1
T:Hobo's Lullaby
M:4/4
L:1/8
K:D
 d6 e f-| f2 A2 d2 c c-| c B3- B4| z8| g6 e c-| c2 A2 d2 d f-| f8|\
 z8| d6 e f-| f2 f a- a2 g2| g B3- B4| z8| c6 B A-| A g3 f2 e d-| d8|\
 z8|
